ukui-icon-theme-default/scalable/actions/focus-top-bar-symbolic.svg

<?xml version="1.0" encoding="iso-8859-1"?>
<!-- Generator: Adobe Illustrator 24.0.0, SVG Export Plug-In . SVG Version: 6.00 Build 0)  -->
<svg version="1.1" id="f" xmlns="http://www.w3.org/2000/svg" xmlns:xlink="http://www.w3.org/1999/xlink" x="0px" y="0px"
	 viewBox="0 0 16 16" style="enable-background:new 0 0 16 16;" xml:space="preserve">
<title>16</title>
<path id="_16" style="fill:#808080;" d="M2.8,2C1.81,2.011,1.011,2.81,1,3.8V11h1v-1h1V5h10v8h1v-1h1V3.8
	c-0.011-0.99-0.81-1.789-1.8-1.8H2.8z M10,3h3v1h-3V3z"/>
</svg>

<svg id="f" xmlns="http://www.w3.org/2000/svg" viewBox="0 0 16 16"><defs><style>.cls-1{fill:gray;}</style></defs><title>16</title><path id="_16" data-name="16" class="cls-1" d="M2.8,2A1.82,1.82,0,0,0,1,3.8V11H2V10H3S3,5,3,5H13s0,8,0,8h1V12h1V3.8A1.82,1.82,0,0,0,13.2,2ZM10,3h3V4H10Z"/></svg>
